X:125
T:Glen Road to Carrick
Z: id:dc-reel-115
M:C
L:1/8
K:D Mixolydian
zAG|FDD2 FDGE|FDFG ABGA|FDD2 FDGF|EdcA G:|!
zFG|AddB ABAF|AddB A2FG|AddB AGFD|EdcA G2FG|!
AddB ABAF|AddB A2B^c|defd AGFD|EdcA G|]!
zge|fdd2 fdge|fdfg abag|fdd2 fdef|g2ag f:|!
zge|f3e d^cdB|AFF2 A2B^c|defd AGFD|EdcA G:|!
AB^c|dDD2 ADD2|dDD2 A2B^c|dDD2 AGFD|EdcA GAB^c|!
dDD2 AD^cD|dD^cD A2Bc|defd AGFD|EdcA G|]!

